app/images/icons/copy-paste.svg

<svg fill="none" height="17" viewBox="0 0 17 17" width="17" xmlns="http://www.w3.org/2000/svg"><g stroke="#00a91c" stroke-linecap="round" stroke-linejoin="round" stroke-width="1.25"><path d="m14.112 6v-2c0-.55228-.4515-1-1.0086-1h-2.6896"/><path d="m4.69827 3h-2.68965c-.55705 0-1.00862.44772-1.00862 1v11c0 .5523.45157 1 1.00862 1h4.03447"/><path clip-rule="evenodd" d="m10.1925 3.658c-.0688.2042-.26158.34192-.47873.342h-4.31555c-.21715-.00008-.40994-.1378-.47875-.342l-.67242-2c-.05155-.15252-.02584-.32034.06909-.4508.09492-.13046.24742-.207589.40967-.2072h5.66039c.1622-.000389.3147.07674.4097.2072.0949.13046.1206.29828.069.4508z" fill-rule="evenodd"/><path clip-rule="evenodd" d="m8.06033 9.5c0-.82843.67158-1.5 1.5-1.5h5.06897c.8284 0 1.5.67157 1.5 1.5v5c0 .8284-.6716 1.5-1.5 1.5h-5.06897c-.82842 0-1.5-.6716-1.5-1.5z" fill-rule="evenodd"/><path d="m10.0775 10h4.0345"/><path d="m10.0775 12h4.0345"/><path d="m10.0775 14h1.513"/></g></svg>

<svg width="17" height="17" viewBox="0 0 17 17" fill="none" xmlns="http://www.w3.org/2000/svg">
<path d="M14.112 6V4C14.112 3.44772 13.6605 3 13.1034 3H10.4138" stroke="#00A91C" stroke-width="1.25" stroke-linecap="round" stroke-linejoin="round"/>
<path d="M4.69827 3H2.00862C1.45157 3 1 3.44772 1 4V15C1 15.5523 1.45157 16 2.00862 16H6.04309" stroke="#00A91C" stroke-width="1.25" stroke-linecap="round" stroke-linejoin="round"/>
<path fill-rule="evenodd" clip-rule="evenodd" d="M10.1925 3.658C10.1237 3.8622 9.93092 3.99992 9.71377 4H5.39822C5.18107 3.99992 4.98828 3.8622 4.91947 3.658L4.24705 1.658C4.1955 1.50548 4.22121 1.33766 4.31614 1.2072C4.41106 1.07674 4.56356 0.999611 4.72581 1H10.3862C10.5484 0.999611 10.7009 1.07674 10.7959 1.2072C10.8908 1.33766 10.9165 1.50548 10.8649 1.658L10.1925 3.658Z" stroke="#00A91C" stroke-width="1.25" stroke-linecap="round" stroke-linejoin="round"/>
<path fill-rule="evenodd" clip-rule="evenodd" d="M8.06033 9.5C8.06033 8.67157 8.73191 8 9.56033 8H14.6293C15.4577 8 16.1293 8.67157 16.1293 9.5V14.5C16.1293 15.3284 15.4577 16 14.6293 16H9.56033C8.73191 16 8.06033 15.3284 8.06033 14.5V9.5Z" stroke="#00A91C" stroke-width="1.25" stroke-linecap="round" stroke-linejoin="round"/>
<path d="M10.0775 10H14.112" stroke="#00A91C" stroke-width="1.25" stroke-linecap="round" stroke-linejoin="round"/>
<path d="M10.0775 12H14.112" stroke="#00A91C" stroke-width="1.25" stroke-linecap="round" stroke-linejoin="round"/>
<path d="M10.0775 14H11.5905" stroke="#00A91C" stroke-width="1.25" stroke-linecap="round" stroke-linejoin="round"/>
</svg>
